(1001)
(T2 D=6 CR=0 - ZMIN=0 - flat end mill)
G90 G94
G17
G21
(G28 G91 Z0)
G90

(Bore3)
(M0)
((MANUAL TOOL CHANGE TO T2))
(S30000 M3)
G17 G90 G94
G54
G0 X74.9 Y114.4
Z27
G0 Z14
G1 Z12.6 F900
G18 G2 X75.5 Z12 I0.6 K0
G1 X75.8
G17 G3 X76.4 Y115 I0 J0.6
X73.6 Y115 Z11 I-1.4 J0 F1800
X76.4 Y115 Z10 I1.4 J0
X73.6 Y115 Z9 I-1.4 J0
X76.4 Y115 Z8 I1.4 J0
X73.6 Y115 Z7 I-1.4 J0
X76.4 Y115 Z6 I1.4 J0
X73.6 Y115 Z5 I-1.4 J0
X76.4 Y115 Z4 I1.4 J0
X73.6 Y115 Z3 I-1.4 J0
X76.4 Y115 Z2 I1.4 J0
X73.6 Y115 Z1 I-1.4 J0
X76.4 Y115 Z0 I1.4 J0
X73.6 Y115 I-1.4 J0
X76.4 Y115 I1.4 J0
X75.8 Y115.6 I-0.6 J0 F900
G1 X75.5
G18 G3 X74.9 Z0.6 I0 K0.6
G0 Z27
G17

(2D Pocket1)
G0 X89.494 Y22.995
Z27
Z17
G1 Z13 F333.3
Z10 F900
X89.465
X60.529 F1800
X60.483 Y23
X60.439 Y23.016
X60.4 Y23.042
X60.368 Y23.076
X58.113 Y26.132
G2 X58.274 Y26.451 I0.161 J0.119
G1 X58.706 Y26.45
X91.741 Y26.474
X91.786 Y26.479
X91.829 Y26.494
X91.867 Y26.518
X91.899 Y26.551
X91.923 Y26.59
X93.371 Y29.716
G3 X93.189 Y30 I-0.181 J0.084
G1 X56.81
G3 X56.635 Y29.702 I0 J-0.2
G1 X60.326 Y23.097
X60.358 Y23.055
X60.4 Y23.022
X60.449 Y23.002
X60.501 Y22.995
Z8 F900
X60.529
X89.465 F1800
X89.512 Y23
X89.555 Y23.016
X89.594 Y23.042
X89.626 Y23.076
X91.902 Y26.155
G3 X91.741 Y26.474 I-0.161 J0.119
G1 X58.706 Y26.45
X58.274 Y26.451
X58.229 Y26.456
X58.186 Y26.471
X58.148 Y26.495
X58.116 Y26.528
X58.093 Y26.566
X56.628 Y29.716
G2 X56.81 Y30 I0.181 J0.084
G1 X91.294
X93.189
G0 Z27
X76.4 Y68.698
Z17
G1 Z14.5 F333.3
Y99.849 Z13.64 F450
X76.356 Y100.286 Z13.628
X76.277 Y100.541 Z13.621
X76.15 Y100.774 Z13.613
X75.98 Y100.981 Z13.606
X75.774 Y101.15 Z13.599
X75.541 Y101.277 Z13.591
X75.285 Y101.356 Z13.584
X75 Y101.385 Z13.576
X74.715 Y101.356 Z13.568
X74.459 Y101.277 Z13.561
X74.226 Y101.15 Z13.553
X74.02 Y100.981 Z13.546
X73.85 Y100.774 Z13.539
X73.723 Y100.541 Z13.531
X73.644 Y100.286 Z13.524
X73.6 Y99.849 Z13.512
Y50.151 Z12.14
X73.644 Y49.714 Z12.128
X73.723 Y49.459 Z12.121
X73.85 Y49.226 Z12.113
X74.02 Y49.02 Z12.106
X74.226 Y48.85 Z12.099
X74.459 Y48.723 Z12.091
X74.714 Y48.644 Z12.084
X75 Y48.615 Z12.076
X75.286 Y48.644 Z12.068
X75.541 Y48.723 Z12.061
X75.774 Y48.85 Z12.053
X75.98 Y49.02 Z12.046
X76.15 Y49.226 Z12.039
X76.277 Y49.459 Z12.031
X76.356 Y49.714 Z12.024
X76.4 Y50.151 Z12.012
Y99.849 Z10.64
X76.356 Y100.286 Z10.628
X76.277 Y100.541 Z10.621
X76.15 Y100.774 Z10.613
X75.98 Y100.981 Z10.606
X75.774 Y101.15 Z10.599
X75.541 Y101.277 Z10.591
X75.285 Y101.356 Z10.584
X75 Y101.385 Z10.576
X74.715 Y101.356 Z10.568
X74.459 Y101.277 Z10.561
X74.226 Y101.15 Z10.553
X74.02 Y100.981 Z10.546
X73.85 Y100.774 Z10.539
X73.723 Y100.541 Z10.531
X73.644 Y100.286 Z10.524
X73.6 Y99.849 Z10.512
Y50.151 Z9.14
X73.644 Y49.714 Z9.128
X73.723 Y49.459 Z9.121
X73.85 Y49.226 Z9.113
X74.02 Y49.02 Z9.106
X74.226 Y48.85 Z9.099
X74.459 Y48.723 Z9.091
X74.714 Y48.644 Z9.084
X75 Y48.615 Z9.076
X75.286 Y48.644 Z9.068
X75.541 Y48.723 Z9.061
X75.774 Y48.85 Z9.053
X75.98 Y49.02 Z9.046
X76.15 Y49.226 Z9.039
X76.277 Y49.459 Z9.031
X76.356 Y49.714 Z9.024
X76.4 Y50.151 Z9.012
Y50.581 Z9
Y99.849 F1800
X76.356 Y100.286
X76.277 Y100.541
X76.15 Y100.774
X75.98 Y100.981
X75.774 Y101.15
X75.541 Y101.277
X75.285 Y101.356
X75 Y101.385
X74.715 Y101.356
X74.459 Y101.277
X74.226 Y101.15
X74.02 Y100.981
X73.85 Y100.774
X73.723 Y100.541
X73.644 Y100.286
X73.6 Y99.849
Y50.151
X73.644 Y49.714
X73.723 Y49.459
X73.85 Y49.226
X74.02 Y49.02
X74.226 Y48.85
X74.459 Y48.723
X74.714 Y48.644
X75 Y48.615
X75.286 Y48.644
X75.541 Y48.723
X75.774 Y48.85
X75.98 Y49.02
X76.15 Y49.226
X76.277 Y49.459
X76.356 Y49.714
X76.4 Y50.151
Y50.581
Y99.849 Z7.64 F450
X76.356 Y100.286 Z7.628
X76.277 Y100.541 Z7.621
X76.15 Y100.774 Z7.613
X75.98 Y100.981 Z7.606
X75.774 Y101.15 Z7.599
X75.541 Y101.277 Z7.591
X75.285 Y101.356 Z7.584
X75 Y101.385 Z7.576
X74.715 Y101.356 Z7.568
X74.459 Y101.277 Z7.561
X74.226 Y101.15 Z7.553
X74.02 Y100.981 Z7.546
X73.85 Y100.774 Z7.539
X73.723 Y100.541 Z7.531
X73.644 Y100.286 Z7.524
X73.6 Y99.849 Z7.512
Y50.151 Z6.14
X73.644 Y49.714 Z6.128
X73.723 Y49.459 Z6.121
X73.85 Y49.226 Z6.113
X74.02 Y49.02 Z6.106
X74.226 Y48.85 Z6.099
X74.459 Y48.723 Z6.091
X74.714 Y48.644 Z6.084
X75 Y48.615 Z6.076
X75.286 Y48.644 Z6.068
X75.541 Y48.723 Z6.061
X75.774 Y48.85 Z6.053
X75.98 Y49.02 Z6.046
X76.15 Y49.226 Z6.039
X76.277 Y49.459 Z6.031
X76.356 Y49.714 Z6.024
X76.4 Y50.151 Z6.012
Y50.581 Z6
Y99.849 F1800
X76.356 Y100.286
X76.277 Y100.541
X76.15 Y100.774
X75.98 Y100.981
X75.774 Y101.15
X75.541 Y101.277
X75.285 Y101.356
X75 Y101.385
X74.715 Y101.356
X74.459 Y101.277
X74.226 Y101.15
X74.02 Y100.981
X73.85 Y100.774
X73.723 Y100.541
X73.644 Y100.286
X73.6 Y99.849
Y50.151
X73.644 Y49.714
X73.723 Y49.459
X73.85 Y49.226
X74.02 Y49.02
X74.226 Y48.85
X74.459 Y48.723
X74.714 Y48.644
X75 Y48.615
X75.286 Y48.644
X75.541 Y48.723
X75.774 Y48.85
X75.98 Y49.02
X76.15 Y49.226
X76.277 Y49.459
X76.356 Y49.714
X76.4 Y50.151
Y50.581
Y99.849 Z4.64 F450
X76.356 Y100.286 Z4.628
X76.277 Y100.541 Z4.621
X76.15 Y100.774 Z4.613
X75.98 Y100.981 Z4.606
X75.774 Y101.15 Z4.599
X75.541 Y101.277 Z4.591
X75.285 Y101.356 Z4.584
X75 Y101.385 Z4.576
X74.715 Y101.356 Z4.568
X74.459 Y101.277 Z4.561
X74.226 Y101.15 Z4.553
X74.02 Y100.981 Z4.546
X73.85 Y100.774 Z4.539
X73.723 Y100.541 Z4.531
X73.644 Y100.286 Z4.524
X73.6 Y99.849 Z4.512
Y50.151 Z3.14
X73.644 Y49.714 Z3.128
X73.723 Y49.459 Z3.121
X73.85 Y49.226 Z3.113
X74.02 Y49.02 Z3.106
X74.226 Y48.85 Z3.099
X74.459 Y48.723 Z3.091
X74.714 Y48.644 Z3.084
X75 Y48.615 Z3.076
X75.286 Y48.644 Z3.068
X75.541 Y48.723 Z3.061
X75.774 Y48.85 Z3.053
X75.98 Y49.02 Z3.046
X76.15 Y49.226 Z3.039
X76.277 Y49.459 Z3.031
X76.356 Y49.714 Z3.024
X76.4 Y50.151 Z3.012
Y50.581 Z3
Y99.849 F1800
X76.356 Y100.286
X76.277 Y100.541
X76.15 Y100.774
X75.98 Y100.981
X75.774 Y101.15
X75.541 Y101.277
X75.285 Y101.356
X75 Y101.385
X74.715 Y101.356
X74.459 Y101.277
X74.226 Y101.15
X74.02 Y100.981
X73.85 Y100.774
X73.723 Y100.541
X73.644 Y100.286
X73.6 Y99.849
Y50.151
X73.644 Y49.714
X73.723 Y49.459
X73.85 Y49.226
X74.02 Y49.02
X74.226 Y48.85
X74.459 Y48.723
X74.714 Y48.644
X75 Y48.615
X75.286 Y48.644
X75.541 Y48.723
X75.774 Y48.85
X75.98 Y49.02
X76.15 Y49.226
X76.277 Y49.459
X76.356 Y49.714
X76.4 Y50.151
Y50.581
Y99.849 Z1.64 F450
X76.356 Y100.286 Z1.628
X76.277 Y100.541 Z1.621
X76.15 Y100.774 Z1.613
X75.98 Y100.981 Z1.606
X75.774 Y101.15 Z1.599
X75.541 Y101.277 Z1.591
X75.285 Y101.356 Z1.584
X75 Y101.385 Z1.576
X74.715 Y101.356 Z1.568
X74.459 Y101.277 Z1.561
X74.226 Y101.15 Z1.553
X74.02 Y100.981 Z1.546
X73.85 Y100.774 Z1.539
X73.723 Y100.541 Z1.531
X73.644 Y100.286 Z1.524
X73.6 Y99.849 Z1.512
Y50.151 Z0.14
X73.644 Y49.714 Z0.128
X73.723 Y49.459 Z0.121
X73.85 Y49.226 Z0.113
X74.02 Y49.02 Z0.106
X74.226 Y48.85 Z0.099
X74.459 Y48.723 Z0.091
X74.714 Y48.644 Z0.084
X75 Y48.615 Z0.076
X75.286 Y48.644 Z0.068
X75.541 Y48.723 Z0.061
X75.774 Y48.85 Z0.053
X75.98 Y49.02 Z0.046
X76.15 Y49.226 Z0.039
X76.277 Y49.459 Z0.031
X76.356 Y49.714 Z0.024
X76.4 Y50.151 Z0.012
Y50.581 Z0
Y99.849 F1800
X76.356 Y100.286
X76.277 Y100.541
X76.15 Y100.774
X75.98 Y100.981
X75.774 Y101.15
X75.541 Y101.277
X75.285 Y101.356
X75 Y101.385
X74.715 Y101.356
X74.459 Y101.277
X74.226 Y101.15
X74.02 Y100.981
X73.85 Y100.774
X73.723 Y100.541
X73.644 Y100.286
X73.6 Y99.849
Y50.151
X73.644 Y49.714
X73.723 Y49.459
X73.85 Y49.226
X74.02 Y49.02
X74.226 Y48.85
X74.459 Y48.723
X74.714 Y48.644
X75 Y48.615
X75.286 Y48.644
X75.541 Y48.723
X75.774 Y48.85
X75.98 Y49.02
X76.15 Y49.226
X76.277 Y49.459
X76.356 Y49.714
X76.4 Y50.151
Y50.581
G0 Z27

(2D Contour1)
G0 X92.683 Y28.493
Z27
Z17
G1 Z14.5 F333.3
X91.284 Y25.096 Z14.461 F450
X91.239 Y24.993 Z14.46
X91.177 Y24.856 Z14.459
X91.128 Y24.754 Z14.457
X91.076 Y24.655 Z14.456
X91.003 Y24.524 Z14.455
X90.948 Y24.426 Z14.453
X90.888 Y24.331 Z14.452
X90.807 Y24.207 Z14.451
X90.745 Y24.115 Z14.45
X90.679 Y24.025 Z14.448
X90.589 Y23.908 Z14.447
X90.52 Y23.821 Z14.446
X90.448 Y23.737 Z14.445
X90.351 Y23.628 Z14.443
X90.201 Y23.47 Z14.441
X90.096 Y23.368 Z14.439
X89.934 Y23.222 Z14.437
X89.823 Y23.128 Z14.435
X89.738 Y23.059 Z14.434
X89.65 Y22.993 Z14.433
X89.532 Y22.908 Z14.431
X89.351 Y22.786 Z14.429
X89.227 Y22.71 Z14.428
X89.038 Y22.602 Z14.425
X88.909 Y22.535 Z14.424
X88.712 Y22.441 Z14.422
X88.577 Y22.383 Z14.42
X88.476 Y22.341 Z14.419
X88.373 Y22.303 Z14.418
X88.235 Y22.255 Z14.416
X88.129 Y22.22 Z14.415
X88.022 Y22.19 Z14.414
X87.88 Y22.152 Z14.412
X87.772 Y22.125 Z14.411
X87.664 Y22.103 Z14.41
X87.518 Y22.075 Z14.408
X87.408 Y22.056 Z14.407
X87.297 Y22.042 Z14.406
X87.149 Y22.025 Z14.404
X87.037 Y22.014 Z14.403
X86.925 Y22.008 Z14.402
X86.774 Y22.002 Z14.401
X86.661 Y22 Z14.399
X63.339 Z14.154
X63.226 Y22.002 Z14.153
X63.075 Y22.008 Z14.151
X62.963 Y22.014 Z14.15
X62.851 Y22.025 Z14.149
X62.703 Y22.042 Z14.147
X62.592 Y22.056 Z14.146
X62.482 Y22.075 Z14.145
X62.336 Y22.103 Z14.143
X62.228 Y22.125 Z14.142
X62.12 Y22.152 Z14.141
X61.978 Y22.19 Z14.14
X61.871 Y22.22 Z14.138
X61.765 Y22.255 Z14.137
X61.627 Y22.303 Z14.136
X61.524 Y22.341 Z14.135
X61.423 Y22.383 Z14.133
X61.288 Y22.441 Z14.132
X61.091 Y22.535 Z14.13
X60.962 Y22.602 Z14.128
X60.773 Y22.71 Z14.126
X60.649 Y22.786 Z14.124
X60.468 Y22.908 Z14.122
X60.35 Y22.993 Z14.12
X60.262 Y23.059 Z14.119
X60.177 Y23.128 Z14.118
X60.066 Y23.222 Z14.117
X59.904 Y23.368 Z14.114
X59.799 Y23.47 Z14.113
X59.649 Y23.628 Z14.11
X59.552 Y23.737 Z14.109
X59.48 Y23.821 Z14.108
X59.411 Y23.908 Z14.107
X59.321 Y24.025 Z14.105
X59.255 Y24.115 Z14.104
X59.193 Y24.207 Z14.103
X59.112 Y24.331 Z14.101
X59.052 Y24.426 Z14.1
X58.997 Y24.524 Z14.099
X58.924 Y24.655 Z14.097
X58.872 Y24.754 Z14.096
X58.823 Y24.856 Z14.095
X58.761 Y24.993 Z14.093
X58.716 Y25.096 Z14.092
X52.226 Y40.858 Z13.913
G2 X52 Y42 Z13.9 I2.774 J1.142
G1 Y123 Z13.049
X52.004 Y123.151 Z13.047
X52.014 Y123.355 Z13.045
G2 X52.044 Y123.656 Z13.042 I2.996 J-0.151
G1 X52.075 Y123.855 Z13.04
G2 X52.135 Y124.149 Z13.036 I2.966 J-0.452
G1 X52.184 Y124.341 Z13.034
G2 X52.274 Y124.63 Z13.031 I2.906 J-0.746
G1 X52.342 Y124.813 Z13.029
G2 X52.454 Y125.079 Z13.026 I2.816 J-1.035
G1 X52.538 Y125.254 Z13.024
G2 X52.677 Y125.51 Z13.021 I2.703 J-1.301
G1 X52.777 Y125.675 Z13.019
G2 X52.939 Y125.914 Z13.016 I2.564 J-1.557
G1 X53.054 Y126.068 Z13.014
G2 X53.237 Y126.29 Z13.011 I2.403 J-1.796
G1 X53.366 Y126.432 Z13.009
G2 X53.569 Y126.635 Z13.006 I2.22 J-2.018
G1 X53.711 Y126.764 Z13.004
G2 X53.933 Y126.947 Z13.001 I2.017 J-2.221
G1 X54.087 Y127.062 Z12.999
G2 X54.315 Y127.216 Z12.996 I1.795 J-2.404
G1 X54.48 Y127.317 Z12.994
G2 X54.747 Y127.463 Z12.991 I1.567 J-2.558
G1 X54.922 Y127.547 Z12.989
G2 X55.194 Y127.662 Z12.985 I1.299 J-2.704
G1 X55.378 Y127.729 Z12.983
G2 X55.662 Y127.816 Z12.98 I1.027 J-2.819
G1 X55.854 Y127.865 Z12.978
G2 X56.134 Y127.923 Z12.975 I0.743 J-2.906
G1 X56.333 Y127.954 Z12.973
G2 X56.649 Y127.986 Z12.97 I0.463 J-2.964
G1 X56.853 Y127.996 Z12.968
X57 Y128 Z12.966
X93 Z12.587
X93.147 Y127.996 Z12.586
X93.351 Y127.986 Z12.584
G2 X93.667 Y127.954 Z12.58 I-0.147 J-2.996
G1 X93.866 Y127.923 Z12.578
G2 X94.146 Y127.865 Z12.575 I-0.463 J-2.964
G1 X94.338 Y127.816 Z12.573
G2 X94.622 Y127.729 Z12.57 I-0.743 J-2.906
G1 X94.806 Y127.662 Z12.568
G2 X95.078 Y127.547 Z12.565 I-1.027 J-2.819
G1 X95.253 Y127.463 Z12.563
G2 X95.52 Y127.317 Z12.56 I-1.299 J-2.704
G1 X95.685 Y127.216 Z12.558
G2 X95.913 Y127.062 Z12.555 I-1.567 J-2.558
G1 X96.067 Y126.947 Z12.553
G2 X96.289 Y126.764 Z12.55 I-1.795 J-2.404
G1 X96.431 Y126.635 Z12.548
G2 X96.634 Y126.432 Z12.545 I-2.017 J-2.221
G1 X96.763 Y126.29 Z12.543
G2 X96.946 Y126.068 Z12.54 I-2.22 J-2.018
G1 X97.061 Y125.914 Z12.538
G2 X97.223 Y125.675 Z12.534 I-2.403 J-1.796
G1 X97.323 Y125.51 Z12.532
G2 X97.462 Y125.254 Z12.529 I-2.564 J-1.557
G1 X97.546 Y125.079 Z12.527
G2 X97.658 Y124.813 Z12.524 I-2.703 J-1.301
G1 X97.726 Y124.63 Z12.522
G2 X97.816 Y124.341 Z12.519 I-2.816 J-1.035
G1 X97.865 Y124.149 Z12.517
G2 X97.925 Y123.855 Z12.514 I-2.906 J-0.746
G1 X97.956 Y123.656 Z12.512
G2 X97.986 Y123.355 Z12.509 I-2.966 J-0.452
G1 X97.996 Y123.151 Z12.506
X98 Y123 Z12.505
Y42 Z11.653
G2 X97.774 Y40.858 Z11.641 I-3 J0
G1 X91.284 Y25.096 Z11.461
X91.239 Y24.993 Z11.46
X91.177 Y24.856 Z11.459
X91.128 Y24.754 Z11.457
X91.076 Y24.655 Z11.456
X91.003 Y24.524 Z11.455
X90.948 Y24.426 Z11.453
X90.888 Y24.331 Z11.452
X90.807 Y24.207 Z11.451
X90.745 Y24.115 Z11.45
X90.679 Y24.025 Z11.448
X90.589 Y23.908 Z11.447
X90.52 Y23.821 Z11.446
X90.448 Y23.737 Z11.445
X90.351 Y23.628 Z11.443
X90.201 Y23.47 Z11.441
X90.096 Y23.368 Z11.439
X89.934 Y23.222 Z11.437
X89.823 Y23.128 Z11.435
X89.738 Y23.059 Z11.434
X89.65 Y22.993 Z11.433
X89.532 Y22.908 Z11.431
X89.351 Y22.786 Z11.429
X89.227 Y22.71 Z11.428
X89.038 Y22.602 Z11.425
X88.909 Y22.535 Z11.424
X88.712 Y22.441 Z11.422
X88.577 Y22.383 Z11.42
X88.476 Y22.341 Z11.419
X88.373 Y22.303 Z11.418
X88.235 Y22.255 Z11.416
X88.129 Y22.22 Z11.415
X88.022 Y22.19 Z11.414
X87.88 Y22.152 Z11.412
X87.772 Y22.125 Z11.411
X87.664 Y22.103 Z11.41
X87.518 Y22.075 Z11.408
X87.408 Y22.056 Z11.407
X87.297 Y22.042 Z11.406
X87.149 Y22.025 Z11.404
X87.037 Y22.014 Z11.403
X86.925 Y22.008 Z11.402
X86.774 Y22.002 Z11.401
X86.661 Y22 Z11.399
X63.339 Z11.154
X63.226 Y22.002 Z11.153
X63.075 Y22.008 Z11.151
X62.963 Y22.014 Z11.15
X62.851 Y22.025 Z11.149
X62.703 Y22.042 Z11.147
X62.592 Y22.056 Z11.146
X62.482 Y22.075 Z11.145
X62.336 Y22.103 Z11.143
X62.228 Y22.125 Z11.142
X62.12 Y22.152 Z11.141
X61.978 Y22.19 Z11.14
X61.871 Y22.22 Z11.138
X61.765 Y22.255 Z11.137
X61.627 Y22.303 Z11.136
X61.524 Y22.341 Z11.135
X61.423 Y22.383 Z11.133
X61.288 Y22.441 Z11.132
X61.091 Y22.535 Z11.13
X60.962 Y22.602 Z11.128
X60.773 Y22.71 Z11.126
X60.649 Y22.786 Z11.124
X60.468 Y22.908 Z11.122
X60.35 Y22.993 Z11.12
X60.262 Y23.059 Z11.119
X60.177 Y23.128 Z11.118
X60.066 Y23.222 Z11.117
X59.904 Y23.368 Z11.114
X59.799 Y23.47 Z11.113
X59.649 Y23.628 Z11.11
X59.552 Y23.737 Z11.109
X59.48 Y23.821 Z11.108
X59.411 Y23.908 Z11.107
X59.321 Y24.025 Z11.105
X59.255 Y24.115 Z11.104
X59.193 Y24.207 Z11.103
X59.112 Y24.331 Z11.101
X59.052 Y24.426 Z11.1
X58.997 Y24.524 Z11.099
X58.924 Y24.655 Z11.097
X58.872 Y24.754 Z11.096
X58.823 Y24.856 Z11.095
X58.761 Y24.993 Z11.093
X58.716 Y25.096 Z11.092
X52.226 Y40.858 Z10.913
G2 X52 Y42 Z10.9 I2.774 J1.142
G1 Y123 Z10.049
X52.004 Y123.151 Z10.047
X52.014 Y123.355 Z10.045
G2 X52.044 Y123.656 Z10.042 I2.996 J-0.151
G1 X52.075 Y123.855 Z10.04
G2 X52.135 Y124.149 Z10.036 I2.966 J-0.452
G1 X52.184 Y124.341 Z10.034
G2 X52.274 Y124.63 Z10.031 I2.906 J-0.746
G1 X52.342 Y124.813 Z10.029
G2 X52.454 Y125.079 Z10.026 I2.816 J-1.035
G1 X52.538 Y125.254 Z10.024
G2 X52.677 Y125.51 Z10.021 I2.703 J-1.301
G1 X52.777 Y125.675 Z10.019
G2 X52.939 Y125.914 Z10.016 I2.564 J-1.557
G1 X53.054 Y126.068 Z10.014
G2 X53.237 Y126.29 Z10.011 I2.403 J-1.796
G1 X53.366 Y126.432 Z10.009
G2 X53.569 Y126.635 Z10.006 I2.22 J-2.018
G1 X53.711 Y126.764 Z10.004
G2 X53.933 Y126.947 Z10.001 I2.017 J-2.221
G1 X54.087 Y127.062 Z9.999
G2 X54.315 Y127.216 Z9.996 I1.795 J-2.404
G1 X54.48 Y127.317 Z9.994
G2 X54.747 Y127.463 Z9.991 I1.567 J-2.558
G1 X54.922 Y127.547 Z9.989
G2 X55.194 Y127.662 Z9.985 I1.299 J-2.704
G1 X55.378 Y127.729 Z9.983
G2 X55.662 Y127.816 Z9.98 I1.027 J-2.819
G1 X55.854 Y127.865 Z9.978
G2 X56.134 Y127.923 Z9.975 I0.743 J-2.906
G1 X56.333 Y127.954 Z9.973
G2 X56.649 Y127.986 Z9.97 I0.463 J-2.964
G1 X56.853 Y127.996 Z9.968
X57 Y128 Z9.966
X93 Z9.587
X93.147 Y127.996 Z9.586
X93.351 Y127.986 Z9.584
G2 X93.667 Y127.954 Z9.58 I-0.147 J-2.996
G1 X93.866 Y127.923 Z9.578
G2 X94.146 Y127.865 Z9.575 I-0.463 J-2.964
G1 X94.338 Y127.816 Z9.573
G2 X94.622 Y127.729 Z9.57 I-0.743 J-2.906
G1 X94.806 Y127.662 Z9.568
G2 X95.078 Y127.547 Z9.565 I-1.027 J-2.819
G1 X95.253 Y127.463 Z9.563
G2 X95.52 Y127.317 Z9.56 I-1.299 J-2.704
G1 X95.685 Y127.216 Z9.558
G2 X95.913 Y127.062 Z9.555 I-1.567 J-2.558
G1 X96.067 Y126.947 Z9.553
G2 X96.289 Y126.764 Z9.55 I-1.795 J-2.404
G1 X96.431 Y126.635 Z9.548
G2 X96.634 Y126.432 Z9.545 I-2.017 J-2.221
G1 X96.763 Y126.29 Z9.543
G2 X96.946 Y126.068 Z9.54 I-2.22 J-2.018
G1 X97.061 Y125.914 Z9.538
G2 X97.223 Y125.675 Z9.534 I-2.403 J-1.796
G1 X97.323 Y125.51 Z9.532
G2 X97.462 Y125.254 Z9.529 I-2.564 J-1.557
G1 X97.546 Y125.079 Z9.527
G2 X97.658 Y124.813 Z9.524 I-2.703 J-1.301
G1 X97.726 Y124.63 Z9.522
G2 X97.816 Y124.341 Z9.519 I-2.816 J-1.035
G1 X97.865 Y124.149 Z9.517
G2 X97.925 Y123.855 Z9.514 I-2.906 J-0.746
G1 X97.956 Y123.656 Z9.512
G2 X97.986 Y123.355 Z9.509 I-2.966 J-0.452
G1 X97.996 Y123.151 Z9.506
X98 Y123 Z9.505
Y75 Z9
Y42 F1800
G2 X97.774 Y40.858 I-3 J0
G1 X91.284 Y25.096
X91.239 Y24.993
X91.177 Y24.856
X91.128 Y24.754
X91.076 Y24.655
X91.003 Y24.524
X90.948 Y24.426
X90.888 Y24.331
X90.807 Y24.207
X90.745 Y24.115
X90.679 Y24.025
X90.589 Y23.908
X90.52 Y23.821
X90.448 Y23.737
X90.351 Y23.628
X90.201 Y23.47
X90.096 Y23.368
X89.934 Y23.222
X89.823 Y23.128
X89.738 Y23.059
X89.65 Y22.993
X89.532 Y22.908
X89.351 Y22.786
X89.227 Y22.71
X89.038 Y22.602
X88.909 Y22.535
X88.712 Y22.441
X88.577 Y22.383
X88.476 Y22.341
X88.373 Y22.303
X88.235 Y22.255
X88.129 Y22.22
X88.022 Y22.19
X87.88 Y22.152
X87.772 Y22.125
X87.664 Y22.103
X87.518 Y22.075
X87.408 Y22.056
X87.297 Y22.042
X87.149 Y22.025
X87.037 Y22.014
X86.925 Y22.008
X86.774 Y22.002
X86.661 Y22
X63.339
X63.226 Y22.002
X63.075 Y22.008
X62.963 Y22.014
X62.851 Y22.025
X62.703 Y22.042
X62.592 Y22.056
X62.482 Y22.075
X62.336 Y22.103
X62.228 Y22.125
X62.12 Y22.152
X61.978 Y22.19
X61.871 Y22.22
X61.765 Y22.255
X61.627 Y22.303
X61.524 Y22.341
X61.423 Y22.383
X61.288 Y22.441
X61.091 Y22.535
X60.962 Y22.602
X60.773 Y22.71
X60.649 Y22.786
X60.468 Y22.908
X60.35 Y22.993
X60.262 Y23.059
X60.177 Y23.128
X60.066 Y23.222
X59.904 Y23.368
X59.799 Y23.47
X59.649 Y23.628
X59.552 Y23.737
X59.48 Y23.821
X59.411 Y23.908
X59.321 Y24.025
X59.255 Y24.115
X59.193 Y24.207
X59.112 Y24.331
X59.052 Y24.426
X58.997 Y24.524
X58.924 Y24.655
X58.872 Y24.754
X58.823 Y24.856
X58.761 Y24.993
X58.716 Y25.096
X52.226 Y40.858
G2 X52 Y42 I2.774 J1.142
G1 Y123
X52.004 Y123.151
X52.014 Y123.355
G2 X52.044 Y123.656 I2.996 J-0.151
G1 X52.075 Y123.855
G2 X52.135 Y124.149 I2.966 J-0.452
G1 X52.184 Y124.341
G2 X52.274 Y124.63 I2.906 J-0.746
G1 X52.342 Y124.813
G2 X52.454 Y125.079 I2.816 J-1.035
G1 X52.538 Y125.254
G2 X52.677 Y125.51 I2.703 J-1.301
G1 X52.777 Y125.675
G2 X52.939 Y125.914 I2.564 J-1.557
G1 X53.054 Y126.068
G2 X53.237 Y126.29 I2.403 J-1.796
G1 X53.366 Y126.432
G2 X53.569 Y126.635 I2.22 J-2.018
G1 X53.711 Y126.764
G2 X53.933 Y126.947 I2.017 J-2.221
G1 X54.087 Y127.062
G2 X54.315 Y127.216 I1.795 J-2.404
G1 X54.48 Y127.317
G2 X54.747 Y127.463 I1.567 J-2.558
G1 X54.922 Y127.547
G2 X55.194 Y127.662 I1.299 J-2.704
G1 X55.378 Y127.729
G2 X55.662 Y127.816 I1.027 J-2.819
G1 X55.854 Y127.865
G2 X56.134 Y127.923 I0.743 J-2.906
G1 X56.333 Y127.954
G2 X56.649 Y127.986 I0.463 J-2.964
G1 X56.853 Y127.996
X57 Y128
X93
X93.147 Y127.996
X93.351 Y127.986
G2 X93.667 Y127.954 I-0.147 J-2.996
G1 X93.866 Y127.923
G2 X94.146 Y127.865 I-0.463 J-2.964
G1 X94.338 Y127.816
G2 X94.622 Y127.729 I-0.743 J-2.906
G1 X94.806 Y127.662
G2 X95.078 Y127.547 I-1.027 J-2.819
G1 X95.253 Y127.463
G2 X95.52 Y127.317 I-1.299 J-2.704
G1 X95.685 Y127.216
G2 X95.913 Y127.062 I-1.567 J-2.558
G1 X96.067 Y126.947
G2 X96.289 Y126.764 I-1.795 J-2.404
G1 X96.431 Y126.635
G2 X96.634 Y126.432 I-2.017 J-2.221
G1 X96.763 Y126.29
G2 X96.946 Y126.068 I-2.22 J-2.018
G1 X97.061 Y125.914
G2 X97.223 Y125.675 I-2.403 J-1.796
G1 X97.323 Y125.51
G2 X97.462 Y125.254 I-2.564 J-1.557
G1 X97.546 Y125.079
G2 X97.658 Y124.813 I-2.703 J-1.301
G1 X97.726 Y124.63
G2 X97.816 Y124.341 I-2.816 J-1.035
G1 X97.865 Y124.149
G2 X97.925 Y123.855 I-2.906 J-0.746
G1 X97.956 Y123.656
G2 X97.986 Y123.355 I-2.966 J-0.452
G1 X97.996 Y123.151
X98 Y123
Y75
Y42 Z8.653 F450
G2 X97.774 Y40.858 Z8.641 I-3 J0
G1 X91.284 Y25.096 Z8.461
X91.239 Y24.993 Z8.46
X91.177 Y24.856 Z8.459
X91.128 Y24.754 Z8.457
X91.076 Y24.655 Z8.456
X91.003 Y24.524 Z8.455
X90.948 Y24.426 Z8.453
X90.888 Y24.331 Z8.452
X90.807 Y24.207 Z8.451
X90.745 Y24.115 Z8.45
X90.679 Y24.025 Z8.448
X90.589 Y23.908 Z8.447
X90.52 Y23.821 Z8.446
X90.448 Y23.737 Z8.445
X90.351 Y23.628 Z8.443
X90.201 Y23.47 Z8.441
X90.096 Y23.368 Z8.439
X89.934 Y23.222 Z8.437
X89.823 Y23.128 Z8.435
X89.738 Y23.059 Z8.434
X89.65 Y22.993 Z8.433
X89.532 Y22.908 Z8.431
X89.351 Y22.786 Z8.429
X89.227 Y22.71 Z8.428
X89.038 Y22.602 Z8.425
X88.909 Y22.535 Z8.424
X88.712 Y22.441 Z8.422
X88.577 Y22.383 Z8.42
X88.476 Y22.341 Z8.419
X88.373 Y22.303 Z8.418
X88.235 Y22.255 Z8.416
X88.129 Y22.22 Z8.415
X88.022 Y22.19 Z8.414
X87.88 Y22.152 Z8.412
X87.772 Y22.125 Z8.411
X87.664 Y22.103 Z8.41
X87.518 Y22.075 Z8.408
X87.408 Y22.056 Z8.407
X87.297 Y22.042 Z8.406
X87.149 Y22.025 Z8.404
X87.037 Y22.014 Z8.403
X86.925 Y22.008 Z8.402
X86.774 Y22.002 Z8.401
X86.661 Y22 Z8.399
X63.339 Z8.154
X63.226 Y22.002 Z8.153
X63.075 Y22.008 Z8.151
X62.963 Y22.014 Z8.15
X62.851 Y22.025 Z8.149
X62.703 Y22.042 Z8.147
X62.592 Y22.056 Z8.146
X62.482 Y22.075 Z8.145
X62.336 Y22.103 Z8.143
X62.228 Y22.125 Z8.142
X62.12 Y22.152 Z8.141
X61.978 Y22.19 Z8.14
X61.871 Y22.22 Z8.138
X61.765 Y22.255 Z8.137
X61.627 Y22.303 Z8.136
X61.524 Y22.341 Z8.135
X61.423 Y22.383 Z8.133
X61.288 Y22.441 Z8.132
X61.091 Y22.535 Z8.13
X60.962 Y22.602 Z8.128
X60.773 Y22.71 Z8.126
X60.649 Y22.786 Z8.124
X60.468 Y22.908 Z8.122
X60.35 Y22.993 Z8.12
X60.262 Y23.059 Z8.119
X60.177 Y23.128 Z8.118
X60.066 Y23.222 Z8.117
X59.904 Y23.368 Z8.114
X59.799 Y23.47 Z8.113
X59.649 Y23.628 Z8.11
X59.552 Y23.737 Z8.109
X59.48 Y23.821 Z8.108
X59.411 Y23.908 Z8.107
X59.321 Y24.025 Z8.105
X59.255 Y24.115 Z8.104
X59.193 Y24.207 Z8.103
X59.112 Y24.331 Z8.101
X59.052 Y24.426 Z8.1
X58.997 Y24.524 Z8.099
X58.924 Y24.655 Z8.097
X58.872 Y24.754 Z8.096
X58.823 Y24.856 Z8.095
X58.761 Y24.993 Z8.093
X58.716 Y25.096 Z8.092
X52.226 Y40.858 Z7.913
G2 X52 Y42 Z7.9 I2.774 J1.142
G1 Y123 Z7.049
X52.004 Y123.151 Z7.047
X52.014 Y123.355 Z7.045
G2 X52.044 Y123.656 Z7.042 I2.996 J-0.151
G1 X52.075 Y123.855 Z7.04
G2 X52.135 Y124.149 Z7.036 I2.966 J-0.452
G1 X52.184 Y124.341 Z7.034
G2 X52.274 Y124.63 Z7.031 I2.906 J-0.746
G1 X52.342 Y124.813 Z7.029
G2 X52.454 Y125.079 Z7.026 I2.816 J-1.035
G1 X52.538 Y125.254 Z7.024
G2 X52.677 Y125.51 Z7.021 I2.703 J-1.301
G1 X52.777 Y125.675 Z7.019
G2 X52.939 Y125.914 Z7.016 I2.564 J-1.557
G1 X53.054 Y126.068 Z7.014
G2 X53.237 Y126.29 Z7.011 I2.403 J-1.796
G1 X53.366 Y126.432 Z7.009
G2 X53.569 Y126.635 Z7.006 I2.22 J-2.018
G1 X53.711 Y126.764 Z7.004
G2 X53.933 Y126.947 Z7.001 I2.017 J-2.221
G1 X54.087 Y127.062 Z6.999
G2 X54.315 Y127.216 Z6.996 I1.795 J-2.404
G1 X54.48 Y127.317 Z6.994
G2 X54.747 Y127.463 Z6.991 I1.567 J-2.558
G1 X54.922 Y127.547 Z6.989
G2 X55.194 Y127.662 Z6.985 I1.299 J-2.704
G1 X55.378 Y127.729 Z6.983
G2 X55.662 Y127.816 Z6.98 I1.027 J-2.819
G1 X55.854 Y127.865 Z6.978
G2 X56.134 Y127.923 Z6.975 I0.743 J-2.906
G1 X56.333 Y127.954 Z6.973
G2 X56.649 Y127.986 Z6.97 I0.463 J-2.964
G1 X56.853 Y127.996 Z6.968
X57 Y128 Z6.966
X93 Z6.587
X93.147 Y127.996 Z6.586
X93.351 Y127.986 Z6.584
G2 X93.667 Y127.954 Z6.58 I-0.147 J-2.996
G1 X93.866 Y127.923 Z6.578
G2 X94.146 Y127.865 Z6.575 I-0.463 J-2.964
G1 X94.338 Y127.816 Z6.573
G2 X94.622 Y127.729 Z6.57 I-0.743 J-2.906
G1 X94.806 Y127.662 Z6.568
G2 X95.078 Y127.547 Z6.565 I-1.027 J-2.819
G1 X95.253 Y127.463 Z6.563
G2 X95.52 Y127.317 Z6.56 I-1.299 J-2.704
G1 X95.685 Y127.216 Z6.558
G2 X95.913 Y127.062 Z6.555 I-1.567 J-2.558
G1 X96.067 Y126.947 Z6.553
G2 X96.289 Y126.764 Z6.55 I-1.795 J-2.404
G1 X96.431 Y126.635 Z6.548
G2 X96.634 Y126.432 Z6.545 I-2.017 J-2.221
G1 X96.763 Y126.29 Z6.543
G2 X96.946 Y126.068 Z6.54 I-2.22 J-2.018
G1 X97.061 Y125.914 Z6.538
G2 X97.223 Y125.675 Z6.534 I-2.403 J-1.796
G1 X97.323 Y125.51 Z6.532
G2 X97.462 Y125.254 Z6.529 I-2.564 J-1.557
G1 X97.546 Y125.079 Z6.527
G2 X97.658 Y124.813 Z6.524 I-2.703 J-1.301
G1 X97.726 Y124.63 Z6.522
G2 X97.816 Y124.341 Z6.519 I-2.816 J-1.035
G1 X97.865 Y124.149 Z6.517
G2 X97.925 Y123.855 Z6.514 I-2.906 J-0.746
G1 X97.956 Y123.656 Z6.512
G2 X97.986 Y123.355 Z6.509 I-2.966 J-0.452
G1 X97.996 Y123.151 Z6.506
X98 Y123 Z6.505
Y75 Z6
Y42 F1800
G2 X97.774 Y40.858 I-3 J0
G1 X91.284 Y25.096
X91.239 Y24.993
X91.177 Y24.856
X91.128 Y24.754
X91.076 Y24.655
X91.003 Y24.524
X90.948 Y24.426
X90.888 Y24.331
X90.807 Y24.207
X90.745 Y24.115
X90.679 Y24.025
X90.589 Y23.908
X90.52 Y23.821
X90.448 Y23.737
X90.351 Y23.628
X90.201 Y23.47
X90.096 Y23.368
X89.934 Y23.222
X89.823 Y23.128
X89.738 Y23.059
X89.65 Y22.993
X89.532 Y22.908
X89.351 Y22.786
X89.227 Y22.71
X89.038 Y22.602
X88.909 Y22.535
X88.712 Y22.441
X88.577 Y22.383
X88.476 Y22.341
X88.373 Y22.303
X88.235 Y22.255
X88.129 Y22.22
X88.022 Y22.19
X87.88 Y22.152
X87.772 Y22.125
X87.664 Y22.103
X87.518 Y22.075
X87.408 Y22.056
X87.297 Y22.042
X87.149 Y22.025
X87.037 Y22.014
X86.925 Y22.008
X86.774 Y22.002
X86.661 Y22
X63.339
X63.226 Y22.002
X63.075 Y22.008
X62.963 Y22.014
X62.851 Y22.025
X62.703 Y22.042
X62.592 Y22.056
X62.482 Y22.075
X62.336 Y22.103
X62.228 Y22.125
X62.12 Y22.152
X61.978 Y22.19
X61.871 Y22.22
X61.765 Y22.255
X61.627 Y22.303
X61.524 Y22.341
X61.423 Y22.383
X61.288 Y22.441
X61.091 Y22.535
X60.962 Y22.602
X60.773 Y22.71
X60.649 Y22.786
X60.468 Y22.908
X60.35 Y22.993
X60.262 Y23.059
X60.177 Y23.128
X60.066 Y23.222
X59.904 Y23.368
X59.799 Y23.47
X59.649 Y23.628
X59.552 Y23.737
X59.48 Y23.821
X59.411 Y23.908
X59.321 Y24.025
X59.255 Y24.115
X59.193 Y24.207
X59.112 Y24.331
X59.052 Y24.426
X58.997 Y24.524
X58.924 Y24.655
X58.872 Y24.754
X58.823 Y24.856
X58.761 Y24.993
X58.716 Y25.096
X52.226 Y40.858
G2 X52 Y42 I2.774 J1.142
G1 Y123
X52.004 Y123.151
X52.014 Y123.355
G2 X52.044 Y123.656 I2.996 J-0.151
G1 X52.075 Y123.855
G2 X52.135 Y124.149 I2.966 J-0.452
G1 X52.184 Y124.341
G2 X52.274 Y124.63 I2.906 J-0.746
G1 X52.342 Y124.813
G2 X52.454 Y125.079 I2.816 J-1.035
G1 X52.538 Y125.254
G2 X52.677 Y125.51 I2.703 J-1.301
G1 X52.777 Y125.675
G2 X52.939 Y125.914 I2.564 J-1.557
G1 X53.054 Y126.068
G2 X53.237 Y126.29 I2.403 J-1.796
G1 X53.366 Y126.432
G2 X53.569 Y126.635 I2.22 J-2.018
G1 X53.711 Y126.764
G2 X53.933 Y126.947 I2.017 J-2.221
G1 X54.087 Y127.062
G2 X54.315 Y127.216 I1.795 J-2.404
G1 X54.48 Y127.317
G2 X54.747 Y127.463 I1.567 J-2.558
G1 X54.922 Y127.547
G2 X55.194 Y127.662 I1.299 J-2.704
G1 X55.378 Y127.729
G2 X55.662 Y127.816 I1.027 J-2.819
G1 X55.854 Y127.865
G2 X56.134 Y127.923 I0.743 J-2.906
G1 X56.333 Y127.954
G2 X56.649 Y127.986 I0.463 J-2.964
G1 X56.853 Y127.996
X57 Y128
X93
X93.147 Y127.996
X93.351 Y127.986
G2 X93.667 Y127.954 I-0.147 J-2.996
G1 X93.866 Y127.923
G2 X94.146 Y127.865 I-0.463 J-2.964
G1 X94.338 Y127.816
G2 X94.622 Y127.729 I-0.743 J-2.906
G1 X94.806 Y127.662
G2 X95.078 Y127.547 I-1.027 J-2.819
G1 X95.253 Y127.463
G2 X95.52 Y127.317 I-1.299 J-2.704
G1 X95.685 Y127.216
G2 X95.913 Y127.062 I-1.567 J-2.558
G1 X96.067 Y126.947
G2 X96.289 Y126.764 I-1.795 J-2.404
G1 X96.431 Y126.635
G2 X96.634 Y126.432 I-2.017 J-2.221
G1 X96.763 Y126.29
G2 X96.946 Y126.068 I-2.22 J-2.018
G1 X97.061 Y125.914
G2 X97.223 Y125.675 I-2.403 J-1.796
G1 X97.323 Y125.51
G2 X97.462 Y125.254 I-2.564 J-1.557
G1 X97.546 Y125.079
G2 X97.658 Y124.813 I-2.703 J-1.301
G1 X97.726 Y124.63
G2 X97.816 Y124.341 I-2.816 J-1.035
G1 X97.865 Y124.149
G2 X97.925 Y123.855 I-2.906 J-0.746
G1 X97.956 Y123.656
G2 X97.986 Y123.355 I-2.966 J-0.452
G1 X97.996 Y123.151
X98 Y123
Y75
Y42 Z5.653 F450
G2 X97.774 Y40.858 Z5.641 I-3 J0
G1 X91.284 Y25.096 Z5.461
X91.239 Y24.993 Z5.46
X91.177 Y24.856 Z5.459
X91.128 Y24.754 Z5.457
X91.076 Y24.655 Z5.456
X91.003 Y24.524 Z5.455
X90.948 Y24.426 Z5.453
X90.888 Y24.331 Z5.452
X90.807 Y24.207 Z5.451
X90.745 Y24.115 Z5.45
X90.679 Y24.025 Z5.448
X90.589 Y23.908 Z5.447
X90.52 Y23.821 Z5.446
X90.448 Y23.737 Z5.445
X90.351 Y23.628 Z5.443
X90.201 Y23.47 Z5.441
X90.096 Y23.368 Z5.439
X89.934 Y23.222 Z5.437
X89.823 Y23.128 Z5.435
X89.738 Y23.059 Z5.434
X89.65 Y22.993 Z5.433
X89.532 Y22.908 Z5.431
X89.351 Y22.786 Z5.429
X89.227 Y22.71 Z5.428
X89.038 Y22.602 Z5.425
X88.909 Y22.535 Z5.424
X88.712 Y22.441 Z5.422
X88.577 Y22.383 Z5.42
X88.476 Y22.341 Z5.419
X88.373 Y22.303 Z5.418
X88.235 Y22.255 Z5.416
X88.129 Y22.22 Z5.415
X88.022 Y22.19 Z5.414
X87.88 Y22.152 Z5.412
X87.772 Y22.125 Z5.411
X87.664 Y22.103 Z5.41
X87.518 Y22.075 Z5.408
X87.408 Y22.056 Z5.407
X87.297 Y22.042 Z5.406
X87.149 Y22.025 Z5.404
X87.037 Y22.014 Z5.403
X86.925 Y22.008 Z5.402
X86.774 Y22.002 Z5.401
X86.661 Y22 Z5.399
X63.339 Z5.154
X63.226 Y22.002 Z5.153
X63.075 Y22.008 Z5.151
X62.963 Y22.014 Z5.15
X62.851 Y22.025 Z5.149
X62.703 Y22.042 Z5.147
X62.592 Y22.056 Z5.146
X62.482 Y22.075 Z5.145
X62.336 Y22.103 Z5.143
X62.228 Y22.125 Z5.142
X62.12 Y22.152 Z5.141
X61.978 Y22.19 Z5.14
X61.871 Y22.22 Z5.138
X61.765 Y22.255 Z5.137
X61.627 Y22.303 Z5.136
X61.524 Y22.341 Z5.135
X61.423 Y22.383 Z5.133
X61.288 Y22.441 Z5.132
X61.091 Y22.535 Z5.13
X60.962 Y22.602 Z5.128
X60.773 Y22.71 Z5.126
X60.649 Y22.786 Z5.124
X60.468 Y22.908 Z5.122
X60.35 Y22.993 Z5.12
X60.262 Y23.059 Z5.119
X60.177 Y23.128 Z5.118
X60.066 Y23.222 Z5.117
X59.904 Y23.368 Z5.114
X59.799 Y23.47 Z5.113
X59.649 Y23.628 Z5.11
X59.552 Y23.737 Z5.109
X59.48 Y23.821 Z5.108
X59.411 Y23.908 Z5.107
X59.321 Y24.025 Z5.105
X59.255 Y24.115 Z5.104
X59.193 Y24.207 Z5.103
X59.112 Y24.331 Z5.101
X59.052 Y24.426 Z5.1
X58.997 Y24.524 Z5.099
X58.924 Y24.655 Z5.097
X58.872 Y24.754 Z5.096
X58.823 Y24.856 Z5.095
X58.761 Y24.993 Z5.093
X58.716 Y25.096 Z5.092
X52.226 Y40.858 Z4.913
G2 X52 Y42 Z4.9 I2.774 J1.142
G1 Y123 Z4.049
X52.004 Y123.151 Z4.047
X52.014 Y123.355 Z4.045
G2 X52.044 Y123.656 Z4.042 I2.996 J-0.151
G1 X52.075 Y123.855 Z4.04
G2 X52.135 Y124.149 Z4.036 I2.966 J-0.452
G1 X52.184 Y124.341 Z4.034
G2 X52.274 Y124.63 Z4.031 I2.906 J-0.746
G1 X52.342 Y124.813 Z4.029
G2 X52.454 Y125.079 Z4.026 I2.816 J-1.035
G1 X52.538 Y125.254 Z4.024
G2 X52.677 Y125.51 Z4.021 I2.703 J-1.301
G1 X52.777 Y125.675 Z4.019
G2 X52.939 Y125.914 Z4.016 I2.564 J-1.557
G1 X53.054 Y126.068 Z4.014
G2 X53.237 Y126.29 Z4.011 I2.403 J-1.796
G1 X53.366 Y126.432 Z4.009
G2 X53.569 Y126.635 Z4.006 I2.22 J-2.018
G1 X53.711 Y126.764 Z4.004
G2 X53.933 Y126.947 Z4.001 I2.017 J-2.221
G1 X54.087 Y127.062 Z3.999
G2 X54.315 Y127.216 Z3.996 I1.795 J-2.404
G1 X54.48 Y127.317 Z3.994
G2 X54.747 Y127.463 Z3.991 I1.567 J-2.558
G1 X54.922 Y127.547 Z3.989
G2 X55.194 Y127.662 Z3.985 I1.299 J-2.704
G1 X55.378 Y127.729 Z3.983
G2 X55.662 Y127.816 Z3.98 I1.027 J-2.819
G1 X55.854 Y127.865 Z3.978
G2 X56.134 Y127.923 Z3.975 I0.743 J-2.906
G1 X56.333 Y127.954 Z3.973
G2 X56.649 Y127.986 Z3.97 I0.463 J-2.964
G1 X56.853 Y127.996 Z3.968
X57 Y128 Z3.966
X93 Z3.587
X93.147 Y127.996 Z3.586
X93.351 Y127.986 Z3.584
G2 X93.667 Y127.954 Z3.58 I-0.147 J-2.996
G1 X93.866 Y127.923 Z3.578
G2 X94.146 Y127.865 Z3.575 I-0.463 J-2.964
G1 X94.338 Y127.816 Z3.573
G2 X94.622 Y127.729 Z3.57 I-0.743 J-2.906
G1 X94.806 Y127.662 Z3.568
G2 X95.078 Y127.547 Z3.565 I-1.027 J-2.819
G1 X95.253 Y127.463 Z3.563
G2 X95.52 Y127.317 Z3.56 I-1.299 J-2.704
G1 X95.685 Y127.216 Z3.558
G2 X95.913 Y127.062 Z3.555 I-1.567 J-2.558
G1 X96.067 Y126.947 Z3.553
G2 X96.289 Y126.764 Z3.55 I-1.795 J-2.404
G1 X96.431 Y126.635 Z3.548
G2 X96.634 Y126.432 Z3.545 I-2.017 J-2.221
G1 X96.763 Y126.29 Z3.543
G2 X96.946 Y126.068 Z3.54 I-2.22 J-2.018
G1 X97.061 Y125.914 Z3.538
G2 X97.223 Y125.675 Z3.534 I-2.403 J-1.796
G1 X97.323 Y125.51 Z3.532
G2 X97.462 Y125.254 Z3.529 I-2.564 J-1.557
G1 X97.546 Y125.079 Z3.527
G2 X97.658 Y124.813 Z3.524 I-2.703 J-1.301
G1 X97.726 Y124.63 Z3.522
G2 X97.816 Y124.341 Z3.519 I-2.816 J-1.035
G1 X97.865 Y124.149 Z3.517
G2 X97.925 Y123.855 Z3.514 I-2.906 J-0.746
G1 X97.956 Y123.656 Z3.512
G2 X97.986 Y123.355 Z3.509 I-2.966 J-0.452
G1 X97.996 Y123.151 Z3.506
X98 Y123 Z3.505
Y75 Z3
Y42 F1800
G2 X97.774 Y40.858 I-3 J0
G1 X91.284 Y25.096
X91.239 Y24.993
X91.177 Y24.856
X91.128 Y24.754
X91.076 Y24.655
X91.003 Y24.524
X90.948 Y24.426
X90.888 Y24.331
X90.807 Y24.207
X90.745 Y24.115
X90.679 Y24.025
X90.589 Y23.908
X90.52 Y23.821
X90.448 Y23.737
X90.351 Y23.628
X90.201 Y23.47
X90.096 Y23.368
X89.934 Y23.222
X89.823 Y23.128
X89.738 Y23.059
X89.65 Y22.993
X89.532 Y22.908
X89.351 Y22.786
X89.227 Y22.71
X89.038 Y22.602
X88.909 Y22.535
X88.712 Y22.441
X88.577 Y22.383
X88.476 Y22.341
X88.373 Y22.303
X88.235 Y22.255
X88.129 Y22.22
X88.022 Y22.19
X87.88 Y22.152
X87.772 Y22.125
X87.664 Y22.103
X87.518 Y22.075
X87.408 Y22.056
X87.297 Y22.042
X87.149 Y22.025
X87.037 Y22.014
X86.925 Y22.008
X86.774 Y22.002
X86.661 Y22
X63.339
X63.226 Y22.002
X63.075 Y22.008
X62.963 Y22.014
X62.851 Y22.025
X62.703 Y22.042
X62.592 Y22.056
X62.482 Y22.075
X62.336 Y22.103
X62.228 Y22.125
X62.12 Y22.152
X61.978 Y22.19
X61.871 Y22.22
X61.765 Y22.255
X61.627 Y22.303
X61.524 Y22.341
X61.423 Y22.383
X61.288 Y22.441
X61.091 Y22.535
X60.962 Y22.602
X60.773 Y22.71
X60.649 Y22.786
X60.468 Y22.908
X60.35 Y22.993
X60.262 Y23.059
X60.177 Y23.128
X60.066 Y23.222
X59.904 Y23.368
X59.799 Y23.47
X59.649 Y23.628
X59.552 Y23.737
X59.48 Y23.821
X59.411 Y23.908
X59.321 Y24.025
X59.255 Y24.115
X59.193 Y24.207
X59.112 Y24.331
X59.052 Y24.426
X58.997 Y24.524
X58.924 Y24.655
X58.872 Y24.754
X58.823 Y24.856
X58.761 Y24.993
X58.716 Y25.096
X52.226 Y40.858
G2 X52 Y42 I2.774 J1.142
G1 Y123
X52.004 Y123.151
X52.014 Y123.355
G2 X52.044 Y123.656 I2.996 J-0.151
G1 X52.075 Y123.855
G2 X52.135 Y124.149 I2.966 J-0.452
G1 X52.184 Y124.341
G2 X52.274 Y124.63 I2.906 J-0.746
G1 X52.342 Y124.813
G2 X52.454 Y125.079 I2.816 J-1.035
G1 X52.538 Y125.254
G2 X52.677 Y125.51 I2.703 J-1.301
G1 X52.777 Y125.675
G2 X52.939 Y125.914 I2.564 J-1.557
G1 X53.054 Y126.068
G2 X53.237 Y126.29 I2.403 J-1.796
G1 X53.366 Y126.432
G2 X53.569 Y126.635 I2.22 J-2.018
G1 X53.711 Y126.764
G2 X53.933 Y126.947 I2.017 J-2.221
G1 X54.087 Y127.062
G2 X54.315 Y127.216 I1.795 J-2.404
G1 X54.48 Y127.317
G2 X54.747 Y127.463 I1.567 J-2.558
G1 X54.922 Y127.547
G2 X55.194 Y127.662 I1.299 J-2.704
G1 X55.378 Y127.729
G2 X55.662 Y127.816 I1.027 J-2.819
G1 X55.854 Y127.865
G2 X56.134 Y127.923 I0.743 J-2.906
G1 X56.333 Y127.954
G2 X56.649 Y127.986 I0.463 J-2.964
G1 X56.853 Y127.996
X57 Y128
X93
X93.147 Y127.996
X93.351 Y127.986
G2 X93.667 Y127.954 I-0.147 J-2.996
G1 X93.866 Y127.923
G2 X94.146 Y127.865 I-0.463 J-2.964
G1 X94.338 Y127.816
G2 X94.622 Y127.729 I-0.743 J-2.906
G1 X94.806 Y127.662
G2 X95.078 Y127.547 I-1.027 J-2.819
G1 X95.253 Y127.463
G2 X95.52 Y127.317 I-1.299 J-2.704
G1 X95.685 Y127.216
G2 X95.913 Y127.062 I-1.567 J-2.558
G1 X96.067 Y126.947
G2 X96.289 Y126.764 I-1.795 J-2.404
G1 X96.431 Y126.635
G2 X96.634 Y126.432 I-2.017 J-2.221
G1 X96.763 Y126.29
G2 X96.946 Y126.068 I-2.22 J-2.018
G1 X97.061 Y125.914
G2 X97.223 Y125.675 I-2.403 J-1.796
G1 X97.323 Y125.51
G2 X97.462 Y125.254 I-2.564 J-1.557
G1 X97.546 Y125.079
G2 X97.658 Y124.813 I-2.703 J-1.301
G1 X97.726 Y124.63
G2 X97.816 Y124.341 I-2.816 J-1.035
G1 X97.865 Y124.149
G2 X97.925 Y123.855 I-2.906 J-0.746
G1 X97.956 Y123.656
G2 X97.986 Y123.355 I-2.966 J-0.452
G1 X97.996 Y123.151
X98 Y123
Y75
Y42 Z2.653 F450
G2 X97.774 Y40.858 Z2.641 I-3 J0
G1 X91.284 Y25.096 Z2.461
X91.239 Y24.993 Z2.46
X91.177 Y24.856 Z2.459
X91.128 Y24.754 Z2.457
X91.076 Y24.655 Z2.456
X91.003 Y24.524 Z2.455
X90.948 Y24.426 Z2.453
X90.888 Y24.331 Z2.452
X90.807 Y24.207 Z2.451
X90.745 Y24.115 Z2.45
X90.679 Y24.025 Z2.448
X90.589 Y23.908 Z2.447
X90.52 Y23.821 Z2.446
X90.448 Y23.737 Z2.445
X90.351 Y23.628 Z2.443
X90.201 Y23.47 Z2.441
X90.096 Y23.368 Z2.439
X89.934 Y23.222 Z2.437
X89.823 Y23.128 Z2.435
X89.738 Y23.059 Z2.434
X89.65 Y22.993 Z2.433
X89.532 Y22.908 Z2.431
X89.351 Y22.786 Z2.429
X89.227 Y22.71 Z2.428
X89.038 Y22.602 Z2.425
X88.909 Y22.535 Z2.424
X88.712 Y22.441 Z2.422
X88.577 Y22.383 Z2.42
X88.476 Y22.341 Z2.419
X88.373 Y22.303 Z2.418
X88.235 Y22.255 Z2.416
X88.129 Y22.22 Z2.415
X88.022 Y22.19 Z2.414
X87.88 Y22.152 Z2.412
X87.772 Y22.125 Z2.411
X87.664 Y22.103 Z2.41
X87.518 Y22.075 Z2.408
X87.408 Y22.056 Z2.407
X87.297 Y22.042 Z2.406
X87.149 Y22.025 Z2.404
X87.037 Y22.014 Z2.403
X86.925 Y22.008 Z2.402
X86.774 Y22.002 Z2.401
X86.661 Y22 Z2.399
X63.339 Z2.154
X63.226 Y22.002 Z2.153
X63.075 Y22.008 Z2.151
X62.963 Y22.014 Z2.15
X62.851 Y22.025 Z2.149
X62.703 Y22.042 Z2.147
X62.592 Y22.056 Z2.146
X62.482 Y22.075 Z2.145
X62.336 Y22.103 Z2.143
X62.228 Y22.125 Z2.142
X62.12 Y22.152 Z2.141
X61.978 Y22.19 Z2.14
X61.871 Y22.22 Z2.138
X61.765 Y22.255 Z2.137
X61.627 Y22.303 Z2.136
X61.524 Y22.341 Z2.135
X61.423 Y22.383 Z2.133
X61.288 Y22.441 Z2.132
X61.091 Y22.535 Z2.13
X60.962 Y22.602 Z2.128
X60.773 Y22.71 Z2.126
X60.649 Y22.786 Z2.124
X60.468 Y22.908 Z2.122
X60.35 Y22.993 Z2.12
X60.262 Y23.059 Z2.119
X60.177 Y23.128 Z2.118
X60.066 Y23.222 Z2.117
X59.904 Y23.368 Z2.114
X59.799 Y23.47 Z2.113
X59.649 Y23.628 Z2.11
X59.552 Y23.737 Z2.109
X59.48 Y23.821 Z2.108
X59.411 Y23.908 Z2.107
X59.321 Y24.025 Z2.105
X59.255 Y24.115 Z2.104
X59.193 Y24.207 Z2.103
X59.112 Y24.331 Z2.101
X59.052 Y24.426 Z2.1
X58.997 Y24.524 Z2.099
X58.924 Y24.655 Z2.097
X58.872 Y24.754 Z2.096
X58.823 Y24.856 Z2.095
X58.761 Y24.993 Z2.093
X58.716 Y25.096 Z2.092
X52.226 Y40.858 Z1.913
G2 X52 Y42 Z1.9 I2.774 J1.142
G1 Y80.075 Z1.5
Y88.5
Z1.411 F333.3
Y123 Z1.049 F450
X52.004 Y123.151 Z1.047
X52.014 Y123.355 Z1.045
G2 X52.044 Y123.656 Z1.042 I2.996 J-0.151
G1 X52.075 Y123.855 Z1.04
G2 X52.135 Y124.149 Z1.036 I2.966 J-0.452
G1 X52.184 Y124.341 Z1.034
G2 X52.274 Y124.63 Z1.031 I2.906 J-0.746
G1 X52.342 Y124.813 Z1.029
G2 X52.454 Y125.079 Z1.026 I2.816 J-1.035
G1 X52.538 Y125.254 Z1.024
G2 X52.677 Y125.51 Z1.021 I2.703 J-1.301
G1 X52.777 Y125.675 Z1.019
G2 X52.939 Y125.914 Z1.016 I2.564 J-1.557
G1 X53.054 Y126.068 Z1.014
G2 X53.237 Y126.29 Z1.011 I2.403 J-1.796
G1 X53.366 Y126.432 Z1.009
G2 X53.569 Y126.635 Z1.006 I2.22 J-2.018
G1 X53.711 Y126.764 Z1.004
G2 X53.933 Y126.947 Z1.001 I2.017 J-2.221
G1 X54.087 Y127.062 Z0.999
G2 X54.315 Y127.216 Z0.996 I1.795 J-2.404
G1 X54.48 Y127.317 Z0.994
G2 X54.747 Y127.463 Z0.991 I1.567 J-2.558
G1 X54.922 Y127.547 Z0.989
G2 X55.194 Y127.662 Z0.985 I1.299 J-2.704
G1 X55.378 Y127.729 Z0.983
G2 X55.662 Y127.816 Z0.98 I1.027 J-2.819
G1 X55.854 Y127.865 Z0.978
G2 X56.134 Y127.923 Z0.975 I0.743 J-2.906
G1 X56.333 Y127.954 Z0.973
G2 X56.649 Y127.986 Z0.97 I0.463 J-2.964
G1 X56.853 Y127.996 Z0.968
X57 Y128 Z0.966
X93 Z0.587
X93.147 Y127.996 Z0.586
X93.351 Y127.986 Z0.584
G2 X93.667 Y127.954 Z0.58 I-0.147 J-2.996
G1 X93.866 Y127.923 Z0.578
G2 X94.146 Y127.865 Z0.575 I-0.463 J-2.964
G1 X94.338 Y127.816 Z0.573
G2 X94.622 Y127.729 Z0.57 I-0.743 J-2.906
G1 X94.806 Y127.662 Z0.568
G2 X95.078 Y127.547 Z0.565 I-1.027 J-2.819
G1 X95.253 Y127.463 Z0.563
G2 X95.52 Y127.317 Z0.56 I-1.299 J-2.704
G1 X95.685 Y127.216 Z0.558
G2 X95.913 Y127.062 Z0.555 I-1.567 J-2.558
G1 X96.067 Y126.947 Z0.553
G2 X96.289 Y126.764 Z0.55 I-1.795 J-2.404
G1 X96.431 Y126.635 Z0.548
G2 X96.634 Y126.432 Z0.545 I-2.017 J-2.221
G1 X96.763 Y126.29 Z0.543
G2 X96.946 Y126.068 Z0.54 I-2.22 J-2.018
G1 X97.061 Y125.914 Z0.538
G2 X97.223 Y125.675 Z0.534 I-2.403 J-1.796
G1 X97.323 Y125.51 Z0.532
G2 X97.462 Y125.254 Z0.529 I-2.564 J-1.557
G1 X97.546 Y125.079 Z0.527
G2 X97.658 Y124.813 Z0.524 I-2.703 J-1.301
G1 X97.726 Y124.63 Z0.522
G2 X97.816 Y124.341 Z0.519 I-2.816 J-1.035
G1 X97.865 Y124.149 Z0.517
G2 X97.925 Y123.855 Z0.514 I-2.906 J-0.746
G1 X97.956 Y123.656 Z0.512
G2 X97.986 Y123.355 Z0.509 I-2.966 J-0.452
G1 X97.996 Y123.151 Z0.506
X98 Y123 Z0.505
Y88.5 Z0.142
Z1.5
Y76.5
Z0.016 F333.3
Y75 Z0 F450
Y42 F1800
G2 X97.774 Y40.858 I-3 J0
G1 X91.284 Y25.096
X91.239 Y24.993
X91.177 Y24.856
X91.128 Y24.754
X91.076 Y24.655
X91.003 Y24.524
X90.948 Y24.426
X90.888 Y24.331
X90.807 Y24.207
X90.745 Y24.115
X90.679 Y24.025
X90.589 Y23.908
X90.52 Y23.821
X90.448 Y23.737
X90.351 Y23.628
X90.201 Y23.47
X90.096 Y23.368
X89.934 Y23.222
X89.823 Y23.128
X89.738 Y23.059
X89.65 Y22.993
X89.532 Y22.908
X89.351 Y22.786
X89.227 Y22.71
X89.038 Y22.602
X88.909 Y22.535
X88.712 Y22.441
X88.577 Y22.383
X88.476 Y22.341
X88.373 Y22.303
X88.235 Y22.255
X88.129 Y22.22
X88.022 Y22.19
X87.88 Y22.152
X87.772 Y22.125
X87.664 Y22.103
X87.518 Y22.075
X87.408 Y22.056
X87.297 Y22.042
X87.149 Y22.025
X87.037 Y22.014
X86.925 Y22.008
X86.774 Y22.002
X86.661 Y22
X63.339
X63.226 Y22.002
X63.075 Y22.008
X62.963 Y22.014
X62.851 Y22.025
X62.703 Y22.042
X62.592 Y22.056
X62.482 Y22.075
X62.336 Y22.103
X62.228 Y22.125
X62.12 Y22.152
X61.978 Y22.19
X61.871 Y22.22
X61.765 Y22.255
X61.627 Y22.303
X61.524 Y22.341
X61.423 Y22.383
X61.288 Y22.441
X61.091 Y22.535
X60.962 Y22.602
X60.773 Y22.71
X60.649 Y22.786
X60.468 Y22.908
X60.35 Y22.993
X60.262 Y23.059
X60.177 Y23.128
X60.066 Y23.222
X59.904 Y23.368
X59.799 Y23.47
X59.649 Y23.628
X59.552 Y23.737
X59.48 Y23.821
X59.411 Y23.908
X59.321 Y24.025
X59.255 Y24.115
X59.193 Y24.207
X59.112 Y24.331
X59.052 Y24.426
X58.997 Y24.524
X58.924 Y24.655
X58.872 Y24.754
X58.823 Y24.856
X58.761 Y24.993
X58.716 Y25.096
X52.226 Y40.858
G2 X52 Y42 I2.774 J1.142
G1 Y76.5
Z1.5
Y88.5
Z0 F333.3
Y123 F1800
X52.004 Y123.151
X52.014 Y123.355
G2 X52.044 Y123.656 I2.996 J-0.151
G1 X52.075 Y123.855
G2 X52.135 Y124.149 I2.966 J-0.452
G1 X52.184 Y124.341
G2 X52.274 Y124.63 I2.906 J-0.746
G1 X52.342 Y124.813
G2 X52.454 Y125.079 I2.816 J-1.035
G1 X52.538 Y125.254
G2 X52.677 Y125.51 I2.703 J-1.301
G1 X52.777 Y125.675
G2 X52.939 Y125.914 I2.564 J-1.557
G1 X53.054 Y126.068
G2 X53.237 Y126.29 I2.403 J-1.796
G1 X53.366 Y126.432
G2 X53.569 Y126.635 I2.22 J-2.018
G1 X53.711 Y126.764
G2 X53.933 Y126.947 I2.017 J-2.221
G1 X54.087 Y127.062
G2 X54.315 Y127.216 I1.795 J-2.404
G1 X54.48 Y127.317
G2 X54.747 Y127.463 I1.567 J-2.558
G1 X54.922 Y127.547
G2 X55.194 Y127.662 I1.299 J-2.704
G1 X55.378 Y127.729
G2 X55.662 Y127.816 I1.027 J-2.819
G1 X55.854 Y127.865
G2 X56.134 Y127.923 I0.743 J-2.906
G1 X56.333 Y127.954
G2 X56.649 Y127.986 I0.463 J-2.964
G1 X56.853 Y127.996
X57 Y128
X93
X93.147 Y127.996
X93.351 Y127.986
G2 X93.667 Y127.954 I-0.147 J-2.996
G1 X93.866 Y127.923
G2 X94.146 Y127.865 I-0.463 J-2.964
G1 X94.338 Y127.816
G2 X94.622 Y127.729 I-0.743 J-2.906
G1 X94.806 Y127.662
G2 X95.078 Y127.547 I-1.027 J-2.819
G1 X95.253 Y127.463
G2 X95.52 Y127.317 I-1.299 J-2.704
G1 X95.685 Y127.216
G2 X95.913 Y127.062 I-1.567 J-2.558
G1 X96.067 Y126.947
G2 X96.289 Y126.764 I-1.795 J-2.404
G1 X96.431 Y126.635
G2 X96.634 Y126.432 I-2.017 J-2.221
G1 X96.763 Y126.29
G2 X96.946 Y126.068 I-2.22 J-2.018
G1 X97.061 Y125.914
G2 X97.223 Y125.675 I-2.403 J-1.796
G1 X97.323 Y125.51
G2 X97.462 Y125.254 I-2.564 J-1.557
G1 X97.546 Y125.079
G2 X97.658 Y124.813 I-2.703 J-1.301
G1 X97.726 Y124.63
G2 X97.816 Y124.341 I-2.816 J-1.035
G1 X97.865 Y124.149
G2 X97.925 Y123.855 I-2.906 J-0.746
G1 X97.956 Y123.656
G2 X97.986 Y123.355 I-2.966 J-0.452
G1 X97.996 Y123.151
X98 Y123
Y88.5
Z1.5
Y76.5
Z0 F333.3
Y75 F1800
G0 Z27

(G28 G91 Z0)
G90
(G28 G91 X0 Y0)
G90
(M5)
M30
